build/system/MoreHorizontalSolid.svg

<svg xmlns="http://www.w3.org/2000/svg" fill="none" viewBox="0 0 24 24" focusable="false"><path d="M0 0H24V24H0z"/><path fill="#74767B" fill-rule="evenodd" d="M3 12C3 7.02944 7.02944 3 12 3C16.9706 3 21 7.02944 21 12C21 16.9706 16.9706 21 12 21C7.02944 21 3 16.9706 3 12ZM6.3 10.7C7.01797 10.7 7.6 11.282 7.6 12C7.6 12.7179 7.01797 13.3 6.3 13.3C5.58203 13.3 5 12.7179 5 12C5 11.282 5.58203 10.7 6.3 10.7ZM17.3 10.7C18.018 10.7 18.6 11.282 18.6 12C18.6 12.7179 18.018 13.3 17.3 13.3C16.582 13.3 16 12.7179 16 12C16 11.282 16.582 10.7 17.3 10.7ZM12 10.7C12.718 10.7 13.3 11.282 13.3 12C13.3 12.718 12.718 13.3 12 13.3C11.282 13.3 10.7 12.718 10.7 12C10.7 11.282 11.282 10.7 12 10.7Z"/></svg>

<svg xmlns="http://www.w3.org/2000/svg" fill="none" viewBox="0 0 24 24" focusable="false"><path fill="#74767B" fill-rule="evenodd" d="M3 12c0-4.98 4.02-9 9-9 4.97 0 9 4.02 9 9a9 9 0 0 1-9 9c-4.98 0-9-4.03-9-9m3.29-1.3c.72 0 1.31.58 1.31 1.29 0 .72-.59 1.3-1.31 1.3a1.295 1.295 0 0 1 0-2.59m11 0c.72 0 1.31.58 1.31 1.29 0 .72-.59 1.3-1.31 1.3a1.295 1.295 0 0 1 0-2.59m-5.29 0c.71 0 1.29.58 1.29 1.3 0 .71-.58 1.3-1.29 1.3-.72 0-1.3-.59-1.3-1.3 0-.72.58-1.3 1.3-1.3"/></svg>
